X:881
T:Bryan O'Lynn
B:O'Neill's 881
Z:Transcribed by Dan G. Petersen, dangp@post6.tele.dk
M:6/8
L:1/8
K:Am
B|cAd cAG|EGE GAB|cAd cAG|EAA A2B|
cAd cAG|EGE GAB|cde gfed|cAA A2:|
e/f/|gag ged|cAB cde|eaa age|edd d2e/f/|
xgag ged|cAB cde|fed cAG|EAA A2:|
